X:65
%%etbk:tnset id:22,pos:3,rep:3x,ant:
%%etbk:wsite http://www.thesession.org/tunes/display/2872
%%etbk:pldat 2016-09-11T16:08,2016-07-21T18:35,2016-07-15T16:34,2016-07-09T14:14,2016-06-13T17:08,2016-05-24T16:28,2015-12-01T17:20,2015-11-28T16:45,2015-08-09T16:53,2015-01-25T17:34,2015-01-21T18:04,2015-01-07T17:36,2014-12-29T17:39,2014-12-20T14:19,2014-12-16T16:23,2014-12-03T17:32,2014-12-02T17:04,2014-11-26T16:42,2014-11-22T15:03,2014-11-15T15:46,2014-10-03T16:06,2014-09-22T18:12,2014-09-16T18:02,2014-09-13T16:20,2014-09-10T17:23,2014-09-08T18:17,2014-06-09T15:50,2014-06-07T15:50,2014-05-28T17:04,2014-05-19T18:43,2014-05-12T19:02,2014-05-08T18:45,2014-04-27T14:53,2014-04-08T18:38,2014-04-07T18:57,2014-04-02T17:02,2013-11-26T17:07,2013-11-16T14:42,2013-11-13T15:39
T: Ryan's Rant
Z: Piano Box Version by Martin Fleischmann
H: Created 2013-02-19 /  Last Modified 2013-11-13
S: Martin Hayes
M: 4/4
L: 1/8
R: reel
K:Gdor
| "gm"!3!B!1!GG(B B)c!5!dc | !3!B!1!GGB "dm"!2!A!1!FFA | "gm"!3!B!1!G !3!(3G!2!G!1!G !3!B!4!c!3!d!5!g | "dm"!4!f!3!d!1!c!3!B !2!A!1!FFA |
"gm"!3!BGGA !3!BG!4!cG | !5!dG!4!cG "dm"!2!(3ABc !1!F2!3!(B2 | "gm"B)AGA !3!B!4!c!3!d!5!g | "dm"!4!f!3!d!1!c!3!B !2!A!1!FFA |
|: "B"!3!B2 !2!B!1!B !5!g!1!B!5!f!1!B | !2!B2 !5!f!4!d "F"!3!c!2!A!1!F!2!A | "B"!3!B2 !2!B!1!B !5!g!1!B!5!f!1!B | !5!g!4!f!3!d!1!c !3!B!1!G !3!(3G!2!G!1!G |
"gm"!2!ABcA !3!B!4!c!3!d!4!f | !5!g!3!d!4!f!3!d "dm"!2!c!1!A !3!(3A!2!A!1!A | "gm"!1!G2!2!B!1!d !3!g!5!bag | "dm"!2!f!1!d!4!c!3!B !2!A!1!FFA:|


